svg/OSM-icons/craft #ff8000 °ffffff !label=encrafts,deHerstellung, Produktion/16041;craft=insulation;[addr];[contact];!label=eninsulation,deIsolationen.svg

<svg xmlns="http://www.w3.org/2000/svg" viewBox="0 0 580 580" enable-background="new 0 0 580 580"><path fill="#111" stroke="#eee" stroke-width="3.408" d="m66.28 1.768c-41.34 0-64.57 21.371-64.57 65.04v450.12c0 40.844 20.895 62.23 62.19 62.23h452.02c41.31 0 62.23-20.315 62.23-62.23v-450.12c0-42.602-20.923-65.04-63.52-65.04-.003 0-448.5-.143-448.35 0z"/><path fill="#fff" d="m488.84 502.1l-72.51-129.69-13.957 52.45-197.77-154.05 197.49-180.91-10.536-11.5-206.83 189.46v-197.75c0-8.613-20.946-15.595-46.785-15.595-25.84 0-46.786 6.982-46.786 15.595v439.79c0 8.612 20.946 15.595 46.786 15.595 25.839 0 46.785-6.982 46.785-15.595v-234.8l208.05 162.06-47.44 26.367 143.5 38.569"/></svg>

<?xml version="1.0" encoding="utf-8"?>
<!-- Generator: Adobe Illustrator 15.0.0, SVG Export Plug-In . SVG Version: 6.00 Build 0)  -->
<!DOCTYPE svg PUBLIC "-//W3C//DTD SVG 1.1//EN" "http://www.w3.org/Graphics/SVG/1.1/DTD/svg11.dtd">
<svg version="1.1" xmlns="http://www.w3.org/2000/svg" xmlns:xlink="http://www.w3.org/1999/xlink" x="0px" y="0px" width="580px"
	 height="580px" viewBox="0 0 580 580" enable-background="new 0 0 580 580" xml:space="preserve">
<g id="Layer_2_1_">
	<g id="Layer_2">
		<g id="g1327">
			<path id="path1329" fill="#111111" stroke="#EEEEEE" stroke-width="3.408" d="M66.275,1.768
				c-41.335,0-64.571,21.371-64.571,65.036v450.123c0,40.844,20.895,62.229,62.192,62.229h452.024
				c41.307,0,62.229-20.315,62.229-62.229V66.804c0-42.602-20.923-65.036-63.521-65.036C514.625,1.768,66.133,1.625,66.275,1.768z"
				/>
		</g>
	</g>
</g>
<g id="Layer_1">
	<path fill="#FFFFFF" d="M488.839,502.095l-72.515-129.694l-13.957,52.453L204.6,270.803L402.094,89.892l-10.536-11.5
		L184.732,267.854V70.107c0-8.613-20.946-15.595-46.785-15.595c-25.84,0-46.786,6.982-46.786,15.595v439.787
		c0,8.612,20.946,15.595,46.786,15.595c25.839,0,46.785-6.982,46.785-15.595V275.096l208.052,162.063l-47.442,26.367
		L488.839,502.095z"/>
</g>
</svg>
